inst/assets/svg/wi-volcano.svg

<?xml version="1.0" encoding="UTF-8"?>
<svg xmlns="http://www.w3.org/2000/svg" xmlns:xlink="http://www.w3.org/1999/xlink" width="30pt" height="30pt" viewBox="0 0 30 30" version="1.1">
<g id="surface1021">
<path style=" stroke:none;fill-rule:nonzero;fill:rgb(0%,0%,0%);fill-opacity:1;" d="M 7.390625 22.609375 C 7.269531 22.339844 7.300781 22.070313 7.480469 21.800781 L 8.878906 19.128906 C 8.890625 19.089844 8.929688 19.039063 8.988281 18.980469 C 9.03125 18.941406 9.160156 18.839844 9.371094 18.691406 C 9.390625 18.679688 9.621094 18.511719 10.050781 18.191406 C 10.53125 17.871094 11.078125 17.46875 11.730469 17 L 13.53125 14.019531 C 13.699219 13.75 13.941406 13.609375 14.25 13.609375 L 14.949219 13.609375 C 14.789063 13.800781 14.640625 14 14.5 14.210938 C 14.359375 14.421875 14.230469 14.710938 14.121094 15.058594 C 14 15.421875 13.941406 15.769531 13.941406 16.128906 C 13.941406 16.488281 14.03125 16.898438 14.21875 17.378906 C 14.410156 17.851563 14.699219 18.320313 15.101563 18.769531 C 15.371094 19.078125 15.539063 19.390625 15.601563 19.699219 C 15.660156 20.011719 15.621094 20.28125 15.5 20.53125 C 15.378906 20.78125 15.179688 21.03125 14.910156 21.269531 C 14.640625 21.511719 14.351563 21.71875 14.03125 21.898438 C 13.710938 22.078125 13.351563 22.25 12.960938 22.421875 C 12.570313 22.589844 12.210938 22.71875 11.910156 22.828125 C 11.601563 22.929688 11.289063 23.03125 10.980469 23.121094 L 8.160156 23.121094 C 8 23.121094 7.839844 23.070313 7.699219 22.980469 C 7.550781 22.890625 7.449219 22.769531 7.390625 22.609375 Z M 10.140625 7.738281 C 10.140625 7.28125 10.289063 6.859375 10.589844 6.5 C 10.890625 6.128906 11.28125 5.898438 11.75 5.78125 C 11.859375 5.21875 12.148438 4.761719 12.601563 4.398438 C 13.050781 4.039063 13.578125 3.859375 14.160156 3.859375 C 14.71875 3.859375 15.21875 4.03125 15.660156 4.378906 C 16.101563 4.730469 16.390625 5.179688 16.519531 5.730469 L 16.660156 5.730469 C 17.230469 5.730469 17.730469 5.910156 18.160156 6.269531 C 18.578125 6.628906 18.800781 7.058594 18.800781 7.570313 C 18.800781 8.128906 18.578125 8.601563 18.148438 9 C 18.148438 9.269531 18.03125 9.589844 17.789063 9.929688 C 17.550781 10.28125 17.289063 10.480469 17.011719 10.539063 C 16.949219 10.851563 16.800781 11.109375 16.578125 11.320313 C 16.351563 11.539063 16.078125 11.679688 15.761719 11.75 C 15.910156 11.910156 15.980469 12.089844 15.980469 12.289063 C 15.980469 12.539063 15.890625 12.75 15.71875 12.921875 C 15.539063 13.089844 15.328125 13.171875 15.078125 13.171875 C 14.839844 13.171875 14.628906 13.078125 14.449219 12.910156 C 14.269531 12.738281 14.191406 12.53125 14.191406 12.289063 C 14.191406 12.261719 14.199219 12.210938 14.210938 12.148438 C 14.21875 12.089844 14.230469 12.039063 14.230469 12.019531 L 14.199219 12.019531 C 13.910156 12.019531 13.660156 11.910156 13.449219 11.699219 C 13.238281 11.488281 13.128906 11.238281 13.128906 10.949219 C 13.128906 10.828125 13.191406 10.648438 13.308594 10.421875 C 13.070313 10.300781 12.878906 10.089844 12.738281 9.789063 L 12.109375 9.789063 C 11.570313 9.738281 11.101563 9.519531 10.71875 9.140625 C 10.339844 8.761719 10.140625 8.289063 10.140625 7.738281 Z M 14.761719 15.480469 C 14.761719 15.320313 14.78125 15.140625 14.828125 14.941406 C 14.878906 14.738281 14.941406 14.589844 14.988281 14.46875 C 15.039063 14.351563 15.109375 14.199219 15.199219 14.019531 C 15.289063 13.839844 15.351563 13.710938 15.390625 13.609375 L 15.769531 13.609375 C 16.050781 13.609375 16.261719 13.71875 16.429688 13.929688 L 16.5 14.03125 L 17.808594 16.511719 L 22.460938 21.738281 L 22.5 21.769531 C 22.710938 22.039063 22.738281 22.328125 22.578125 22.648438 C 22.429688 22.960938 22.179688 23.109375 21.828125 23.109375 L 16.199219 23.109375 C 16.371094 22.949219 16.519531 22.820313 16.640625 22.71875 C 16.761719 22.609375 16.910156 22.449219 17.089844 22.230469 C 17.269531 22.011719 17.421875 21.800781 17.511719 21.621094 C 17.601563 21.441406 17.679688 21.199219 17.738281 20.929688 C 17.800781 20.660156 17.808594 20.398438 17.75 20.140625 C 17.691406 19.890625 17.570313 19.609375 17.371094 19.300781 C 17.179688 18.988281 16.910156 18.691406 16.558594 18.390625 C 16.21875 18.089844 15.921875 17.800781 15.679688 17.511719 C 15.441406 17.230469 15.25 16.96875 15.121094 16.75 C 14.988281 16.53125 14.890625 16.300781 14.828125 16.070313 C 14.789063 15.839844 14.761719 15.640625 14.761719 15.480469 Z M 14.761719 15.480469 "/>
</g>
</svg>

<?xml version="1.0" encoding="utf-8"?>
<!-- Generator: Adobe Illustrator 22.0.1, SVG Export Plug-In . SVG Version: 6.00 Build 0)  -->
<svg version="1.1" id="Layer_1" xmlns="http://www.w3.org/2000/svg" xmlns:xlink="http://www.w3.org/1999/xlink" x="0px" y="0px"
	 viewBox="0 0 30 30" style="enable-background:new 0 0 30 30;" xml:space="preserve">
<path d="M7.39,22.61c-0.12-0.27-0.09-0.54,0.09-0.81l1.4-2.67c0.01-0.04,0.05-0.09,0.11-0.15c0.04-0.04,0.17-0.14,0.38-0.29
	c0.02-0.01,0.25-0.18,0.68-0.5c0.48-0.32,1.03-0.72,1.68-1.19l1.8-2.98c0.17-0.27,0.41-0.41,0.72-0.41h0.7
	c-0.16,0.19-0.31,0.39-0.45,0.6c-0.14,0.21-0.27,0.5-0.38,0.85c-0.12,0.36-0.18,0.71-0.18,1.07c0,0.36,0.09,0.77,0.28,1.25
	c0.19,0.47,0.48,0.94,0.88,1.39c0.27,0.31,0.44,0.62,0.5,0.93s0.02,0.58-0.1,0.83c-0.12,0.25-0.32,0.5-0.59,0.74
	c-0.27,0.24-0.56,0.45-0.88,0.63c-0.32,0.18-0.68,0.35-1.07,0.52c-0.39,0.17-0.75,0.3-1.05,0.41c-0.31,0.1-0.62,0.2-0.93,0.29H8.16
	c-0.16,0-0.32-0.05-0.46-0.14C7.55,22.89,7.45,22.77,7.39,22.61z M10.14,7.74c0-0.46,0.15-0.88,0.45-1.24
	c0.3-0.37,0.69-0.6,1.16-0.72c0.11-0.56,0.4-1.02,0.85-1.38s0.98-0.54,1.56-0.54c0.56,0,1.06,0.17,1.5,0.52s0.73,0.8,0.86,1.35h0.14
	c0.57,0,1.07,0.18,1.5,0.54c0.42,0.36,0.64,0.79,0.64,1.3c0,0.56-0.22,1.03-0.65,1.43c0,0.27-0.12,0.59-0.36,0.93
	c-0.24,0.35-0.5,0.55-0.78,0.61c-0.06,0.31-0.21,0.57-0.43,0.78c-0.23,0.22-0.5,0.36-0.82,0.43c0.15,0.16,0.22,0.34,0.22,0.54
	c0,0.25-0.09,0.46-0.26,0.63c-0.18,0.17-0.39,0.25-0.64,0.25c-0.24,0-0.45-0.09-0.63-0.26c-0.18-0.17-0.26-0.38-0.26-0.62
	c0-0.03,0.01-0.08,0.02-0.14s0.02-0.11,0.02-0.13H14.2c-0.29,0-0.54-0.11-0.75-0.32c-0.21-0.21-0.32-0.46-0.32-0.75
	c0-0.12,0.06-0.3,0.18-0.53c-0.24-0.12-0.43-0.33-0.57-0.63h-0.63c-0.54-0.05-1.01-0.27-1.39-0.65C10.34,8.76,10.14,8.29,10.14,7.74
	z M14.76,15.48c0-0.16,0.02-0.34,0.07-0.54c0.05-0.2,0.11-0.35,0.16-0.47c0.05-0.12,0.12-0.27,0.21-0.45
	c0.09-0.18,0.15-0.31,0.19-0.41h0.38c0.28,0,0.49,0.11,0.66,0.32l0.07,0.1l1.31,2.48l4.65,5.23l0.04,0.03
	c0.21,0.27,0.24,0.56,0.08,0.88c-0.15,0.31-0.4,0.46-0.75,0.46H16.2c0.17-0.16,0.32-0.29,0.44-0.39c0.12-0.11,0.27-0.27,0.45-0.49
	s0.33-0.43,0.42-0.61s0.17-0.42,0.23-0.69c0.06-0.27,0.07-0.53,0.01-0.79c-0.06-0.25-0.18-0.53-0.38-0.84
	c-0.19-0.31-0.46-0.61-0.81-0.91c-0.34-0.3-0.64-0.59-0.88-0.88c-0.24-0.28-0.43-0.54-0.56-0.76c-0.13-0.22-0.23-0.45-0.29-0.68
	C14.79,15.84,14.76,15.64,14.76,15.48z"/>
</svg>
